X:5086
T:The Montiaghs Mazurka
M:3/4
R:Mazurka
L:1/8
Q:140
C:Aidan Crossey
K:D
AG|
|:F2 FG AB|E2 EF GA|B2 Bd ed|ce ge cA|
F2 FG AB|E2 EF GA|B2 Bd ed|cA GE FD:|| 
|:d2 fd ge|AB cd ef|d2 fd ge|ce ge cA|
d2 fd ge|AB cd ef|d2 fd ge|a2 ag fd:||
